X: 1504
T: the Smoky House   #2
T: an tea.c toitea.c.
R: reel
%S: s:2 b:14(7+7)
O: Stack
B: O'Neill's 1850 "Music of Ireland" #1504
Z: transcribed by John B. Walsh, walsh@math.ubc.ca 8/23/96
M: C|
L: 1/8
K: Am
(AB) | cAeA cAeA | BGGA BcdB |1 cAeA cAeA | dBGB A2 :|2 cBAB cde^f | gedB A2 |] (ab) | c'bag age^f |
| gedc BGGb | c'bag aged | ((3e^fg) ab a2(ab) | c'ba^f gbaf | gedc BGG2 | ABcd ede^f | gedB A2 |]
